packages/dnb-eufemia/assets/icons/charger_medium.svg

<svg width="24" height="24" viewBox="0 0 24 24" fill="none" xmlns="http://www.w3.org/2000/svg">
<path d="M6 0.75V5.25M12 0.75V5.25M9 15.75V18.75C9 23 15 23 15 18.75C15 15 21 15 21 18.75V23.25M7.5 8.25H10.5M6 5.25H4.49996C4.10213 5.25 3.7206 5.40804 3.4393 5.68934C3.15799 5.97064 3.12207 6.37109 3.12207 6.5938C3.12207 12 3.4393 15.5938 9.12207 15.5938C14.4585 15.5938 14.9989 12 15 6.75C15 6.36328 14.8419 5.97064 14.5606 5.68934C14.2793 5.40804 13.8978 5.25 13.5 5.25H12M6 5.25H12" stroke="black" stroke-width="1.5" stroke-linecap="round" stroke-linejoin="round"/>
</svg>

<svg width="24" height="24" viewBox="0 0 24 24" fill="none" xmlns="http://www.w3.org/2000/svg"><path d="M9 15.75c-5.683 0-5.878-3.75-5.878-9.156 0-.223.036-.623.317-.905A1.5 1.5 0 0 1 4.5 5.25H6m3 10.5c5.336 0 5.999-3.75 6-9a1.5 1.5 0 0 0-1.5-1.5H12m-3 10.5v3c0 4.25 6 4.25 6 0 0-3.75 6-3.75 6 0v4.5M6 .75v4.5m6-4.5v4.5m-4.5 3h3m-4.5-3h6" stroke="#000" stroke-width="1.5" stroke-linecap="round" stroke-linejoin="round"/></svg>
